X: 858
T: Ale Is Dear, The
R: reel
M: 4/4
K: Bdorian
e|:{a} f2 ef Bf{a}fe|(3 fga ec ABce|{a} f2 ef Bf{a}fe|1 (3 fga ec Bcde:|2 (3 fga ec {d}BAFA||
|:~B3 c d2cB|~A3 B ABcA|1 ~B3 c d2cB|cfec {d}BAFA:|2 dfed cdec|(3 fga ec Bcde||

